X: 35155
T: Ronde De Loudeac
R: barndance
M: 4/4
K: Bminor
|:BB AB AG FE|Fd cB A2 B2|FB AB AG FE|Fd cB A2 B2:|
|:c2 Bc f2fe|dc dc B2A2|(3GAB cB AG F2|Fd cB A2 B2:|

